X:22
T: Graf und Nonne (Die Nonne)
N: Q0155U
O: Mitteleuropa, Oesterreich, Burgenland, Pamhagen
R: Ballade, Standesunterschied, Werbung, Liebe, Glueck
M: 4/4
L: 1/4
K: G
GB | ddcd | B2
GB | ddcd | B2
AA | BB^cA | dd
AA | BB^cA | dd
gd | dcBc | d2
dc | BBAA | G2

@@@ Tune index: 1732
